X:192
T:Dacw Mam yn Dwad
M:6/8
L:1/8
Q:120
C:Trad. arr. Ceri Rhys Matthews
R:Processional
N:Aeolian mode arrangement
K:G
EDE FEF | G2 F E2 E | F2 F D2 D | E3 E3 | EDE FEF | G2 F E2 E|
| F2 F D2 D | E3- E2 E | B3 F2 F | G2 F E2 E | B2 B F2 F|
| G3- G2 D | EDE FEF | G2 F E2 E | F2 F D3 | E3- E3 |
| B3 F3 | G2F E3 | B3 F3 | G2F E2 D | EDE FEF | G2A B2 E|
| F3 D2 D | E3- E3 ||
